svg/transport/car_line.svg

<?xml version="1.0" encoding="UTF-8"?>
<svg width="24px" height="24px" viewBox="0 0 24 24" version="1.1" xmlns="http://www.w3.org/2000/svg" xmlns:xlink="http://www.w3.org/1999/xlink">
    <title>car_line</title>
    <g id="页面-1" stroke="none" stroke-width="1" fill="none" fill-rule="evenodd">
        <g id="Transport" transform="translate(-288.000000, 0.000000)" fill-rule="nonzero">
            <g id="car_line" transform="translate(288.000000, 0.000000)">
                 <path d="M24,0 L24,24 L0,24 L0,0 L24,0 Z M12.5934901,23.257841 L12.5819402,23.2595131 L12.5108777,23.2950439 L12.4918791,23.2987469 L12.4918791,23.2987469 L12.4767152,23.2950439 L12.4056548,23.2595131 C12.3958229,23.2563662 12.3870493,23.2590235 12.3821421,23.2649074 L12.3780323,23.275831 L12.360941,23.7031097 L12.3658947,23.7234994 L12.3769048,23.7357139 L12.4804777,23.8096931 L12.4953491,23.8136134 L12.4953491,23.8136134 L12.5071152,23.8096931 L12.6106902,23.7357139 L12.6232938,23.7196733 L12.6232938,23.7196733 L12.6266527,23.7031097 L12.609561,23.275831 C12.6075724,23.2657013 12.6010112,23.2592993 12.5934901,23.257841 L12.5934901,23.257841 Z M12.8583906,23.1452862 L12.8445485,23.1473072 L12.6598443,23.2396597 L12.6498822,23.2499052 L12.6498822,23.2499052 L12.6471943,23.2611114 L12.6650943,23.6906389 L12.6699349,23.7034178 L12.6699349,23.7034178 L12.678386,23.7104931 L12.8793402,23.8032389 C12.8914285,23.8068999 12.9022333,23.8029875 12.9078286,23.7952264 L12.9118235,23.7811639 L12.8776777,23.1665331 C12.8752882,23.1545897 12.8674102,23.1470016 12.8583906,23.1452862 L12.8583906,23.1452862 Z M12.1430473,23.1473072 C12.1332178,23.1423925 12.1221763,23.1452606 12.1156365,23.1525954 L12.1099173,23.1665331 L12.0757714,23.7811639 C12.0751323,23.7926639 12.0828099,23.8018602 12.0926481,23.8045676 L12.108256,23.8032389 L12.3092106,23.7104931 L12.3186497,23.7024347 L12.3186497,23.7024347 L12.3225043,23.6906389 L12.340401,23.2611114 L12.337245,23.2485176 L12.337245,23.2485176 L12.3277531,23.2396597 L12.1430473,23.1473072 Z" id="MingCute" fill-rule="nonzero"></path>
                <path d="M15.7639,4 C16.9002,4 17.939,4.64201 18.4472,5.65836 L18.4472,5.65836 L19.8297,8.42332 C20.0735,8.32394 20.3168,8.22155 20.5532,8.10538 C21.0471,7.85869 21.6475,8.05894 21.8944,8.55279 C22.1414,9.04676 21.9412,9.64744 21.4472,9.89443 C20.9532,10.1414 20.7265,10.2169 20.7265,10.2169 L20.7265,10.2169 L21.6833,12.1305 C21.8915,12.5471 22,13.0064 22,13.4721 L22,13.4721 L22,16 C22,16.8885 21.6137,17.6868 21,18.2361 L21,18.2361 L21,19.5 C21,20.3284 20.3284,21 19.5,21 C18.6715,21 18,20.3284 18,19.5 L18,19.5 L18,19 L5.99998,19 L5.99998,19.5 C5.99998,20.3284 5.3284,21 4.49997,21 C3.67155,21 2.99997,20.3284 2.99997,19.5 L2.99997,19.5 L2.99997,18.2361 C2.38623,17.6868 1.99997,16.8885 1.99997,16 L1.99997,16 L1.99997,13.4721 C1.99997,13.0064 2.10841,12.5471 2.31669,12.1305 L2.31669,12.1305 L3.2735,10.2169 C3.03141,10.116 2.79108,10.0105 2.55525,9.89567 L2.55525,9.89567 C2.05878,9.64744 1.85856,9.04676 2.10555,8.55279 C2.35213,8.05962 2.96121,7.86667 3.4517,8.10779 C3.68712,8.22182 3.92811,8.3246 4.17028,8.42332 L4.17028,8.42332 L5.55276,5.65836 C6.06094,4.64201 7.09973,4 8.23604,4 L8.23604,4 Z M18.8341,10.9044 C17.1339,11.4406 14.715,12 12,12 C9.28499,12 6.86601,11.4406 5.16583,10.9044 L4.10555,13.0249 C4.03612,13.1638 3.99997,13.3169 3.99997,13.4721 L3.99997,16 C3.99997,16.5523 4.44769,17 4.99997,17 L19,17 C19.5523,17 20,16.5523 20,16 L20,13.4721 C20,13.3169 19.9638,13.1638 19.8944,13.0249 L18.8341,10.9044 Z M7.49997,13 C8.3284,13 8.99997,13.6716 8.99997,14.5 C8.99997,15.3284 8.3284,16 7.49997,16 C6.67155,16 5.99997,15.3284 5.99997,14.5 C5.99997,13.6716 6.67155,13 7.49997,13 Z M16.5,13 C17.3284,13 18,13.6716 18,14.5 C18,15.3284 17.3284,16 16.5,16 C15.6715,16 15,15.3284 15,14.5 C15,13.6716 15.6715,13 16.5,13 Z M15.7639,6 L8.23604,6 C7.85727,6 7.51101,6.214 7.34162,6.55279 L6.07258,9.09086 C7.61992,9.55498 9.70503,10 12,10 C14.2949,10 16.38,9.55498 17.9274,9.09086 L16.6583,6.55279 C16.4889,6.214 16.1427,6 15.7639,6 Z" id="形状结合" fill="#09244B"></path>
            </g>
        </g>
    </g>
</svg>

<svg xmlns="http://www.w3.org/2000/svg" width="24" height="24"><g fill="none" fill-rule="nonzero"><path d="M24 0v24H0V0h24ZM12.593 23.258l-.011.002-.071.035-.02.004-.014-.004-.071-.035c-.01-.004-.019-.001-.024.005l-.004.01-.017.428.005.02.01.013.104.074.015.004.012-.004.104-.074.012-.016.004-.017-.017-.427c-.002-.01-.009-.017-.017-.018Zm.265-.113-.013.002-.185.093-.01.01-.003.011.018.43.005.012.008.007.201.093c.012.004.023 0 .029-.008l.004-.014-.034-.614c-.003-.012-.01-.02-.02-.022Zm-.715.002a.023.023 0 0 0-.027.006l-.006.014-.034.614c0 .012.007.02.017.024l.015-.002.201-.093.01-.008.004-.011.017-.43-.003-.012-.01-.01-.184-.092Z"/><path fill="#09244B" d="M15.764 4a3 3 0 0 1 2.683 1.658l1.383 2.765c.244-.1.487-.201.723-.318a1 1 0 0 1 .894 1.79c-.494.246-.72.322-.72.322l.956 1.913c.209.417.317.876.317 1.342V16c0 .889-.386 1.687-1 2.236V19.5a1.5 1.5 0 0 1-3 0V19H6v.5a1.5 1.5 0 0 1-3 0v-1.264c-.614-.55-1-1.348-1-2.236v-2.528a3 3 0 0 1 .317-1.341l.956-1.914c-.242-.101-.482-.207-.718-.321a1 1 0 0 1-.45-1.343 1.011 1.011 0 0 1 1.347-.445c.235.114.476.217.718.315l1.383-2.765A3 3 0 0 1 8.236 4Zm3.07 6.904C17.134 11.441 14.715 12 12 12s-5.134-.56-6.834-1.096l-1.06 2.12a1 1 0 0 0-.106.448V16a1 1 0 0 0 1 1h14a1 1 0 0 0 1-1v-2.528a1 1 0 0 0-.106-.447l-1.06-2.12ZM7.5 13a1.5 1.5 0 1 1 0 3 1.5 1.5 0 0 1 0-3Zm9 0a1.5 1.5 0 1 1 0 3 1.5 1.5 0 0 1 0-3Zm-.736-7H8.236a1 1 0 0 0-.894.553L6.072 9.09C7.62 9.555 9.706 10 12 10s4.38-.445 5.927-.91l-1.269-2.537A1 1 0 0 0 15.764 6Z"/></g></svg>
